packages/core/src/svgs/trias.svg

<svg width="24" height="24" viewBox="0 0 24 24" fill="none" xmlns="http://www.w3.org/2000/svg">
<g clip-path="url(#clip0_31_20015)">
<mask id="mask0_31_20015" style="mask-type:luminance" maskUnits="userSpaceOnUse" x="0" y="0" width="24" height="24">
<path d="M0 0H24V24H0V0Z" fill="white"/>
</mask>
<g mask="url(#mask0_31_20015)">
<path d="M0 0H24V24H0V0Z" fill="url(#paint0_linear_31_20015)"/>
<path d="M11.5714 26.6559L25.1198 -2.65576L26.1424 26.6559H11.5714Z" fill="#209FC6"/>
<path fill-rule="evenodd" clip-rule="evenodd" d="M12.6347 5.20754C12.5713 5.15926 12.4921 5.13656 12.4127 5.14395C12.3333 5.15133 12.2596 5.18825 12.2062 5.2474L5.20931 13.338C5.18389 13.367 5.16506 13.4011 5.15409 13.4381C5.14313 13.475 5.1403 13.5139 5.1458 13.5521C5.15129 13.5902 5.16499 13.6267 5.18594 13.6591C5.20689 13.6915 5.2346 13.7189 5.26717 13.7395L12.7697 18.8035C12.8846 18.8807 13.0423 18.8738 13.1482 18.7864L17.8993 14.8521C17.9407 14.8191 17.9714 14.7744 17.9874 14.7239C18.0035 14.6734 18.0041 14.6193 17.9893 14.5684L15.945 7.76612L12.6347 5.20754ZM5.81617 13.3821L13.1645 14.0477L13.6937 9.2764L12.2979 5.88726L5.81574 13.3821H5.81617ZM13.113 14.5114L6.35917 13.8998L12.7059 18.1834L13.113 14.5114ZM13.6136 14.5568L17.1176 14.874L13.2206 18.1011L13.6136 14.5568ZM17.4262 14.4334L13.665 14.0927L14.1793 9.45683L15.5777 8.28212L17.4262 14.4334ZM15.3069 7.88054L14.0812 8.90997L12.8863 6.0094L15.3069 7.88012V7.88054Z" fill="white"/>
<path d="M16.1066 25.5078L24.0669 8.28564L24.6673 25.5078H16.1066Z" fill="#1D6174"/>
</g>
</g>
<defs>
<linearGradient id="paint0_linear_31_20015" x1="2.946" y1="1.92" x2="17.2817" y2="18.7217" gradientUnits="userSpaceOnUse">
<stop stop-color="#79DCE5"/>
<stop offset="0.807" stop-color="#12ABA9"/>
</linearGradient>
<clipPath id="clip0_31_20015">
<rect width="24" height="24" fill="white"/>
</clipPath>
</defs>
</svg>

<svg xmlns="http://www.w3.org/2000/svg" width="24" height="24" fill="none" viewBox="0 0 24 24"><g clip-path="url(#a)"><mask id="b" width="24" height="24" x="0" y="0" maskUnits="userSpaceOnUse" style="mask-type:luminance"><path fill="#fff" d="M0 0h24v24H0z"/></mask><g mask="url(#b)"><path fill="url(#c)" d="M0 0h24v24H0z"/><path fill="#209FC6" d="M11.571 26.656 25.12-2.656l1.022 29.312z"/><path fill="#fff" fill-rule="evenodd" d="M12.635 5.208a.32.32 0 0 0-.429.04l-6.997 8.09a.267.267 0 0 0 .058.402l7.503 5.063c.115.078.272.07.378-.017l4.751-3.934a.27.27 0 0 0 .09-.284l-2.044-6.802zm-6.819 8.174 7.349.666.529-4.772-1.396-3.389zm7.297 1.13L6.359 13.9l6.347 4.283zm.5.045 3.505.317-3.897 3.227zm3.813-.124-3.761-.34.514-4.636 1.399-1.175zm-2.12-6.552L14.082 8.91l-1.195-2.9z" clip-rule="evenodd"/><path fill="#1D6174" d="m16.107 25.508 7.96-17.222.6 17.222z"/></g></g><defs><linearGradient id="c" x1="2.946" x2="17.282" y1="1.92" y2="18.722" gradientUnits="userSpaceOnUse"><stop stop-color="#79DCE5"/><stop offset=".807" stop-color="#12ABA9"/></linearGradient><clipPath id="a"><path fill="#fff" d="M0 0h24v24H0z"/></clipPath></defs></svg>
